X: 237
T: Come
C: Teton Sioux band 1911-1914
N: Derived from sioux232.krn
O: South Dakota, U.S.A.
N: Teton Sioux Music by Frances Densmore, 1918
Z: transcribed to **kern format by Craig Sapp
L: 1/8
M: 3/4
Q: 1/4=58
K: G clef=bass
%%linebreak <none>
E3/ G/ [I:setbarnb 1]| 
G E E> E F/ E3/ | 
(3B, B, B,B,2B,3/ E/ ||  
[M:2/4]E< B, A,3/ A,/ | 
A,> G, A,/ G,3/ ||  
[M:3/4](3E, E, E, E, G, G, G, | 
(3G, G, G, G,> A, G, E, | 
(3G, G, G,G,2B,3/ E/ ||  
[M:2/4]E B, A,3/ A,/ | 
A,> G, (A,/ G,3/) ||  
[M:3/4](3E, E, E, (3E, E, E,E,2 ||  
[M:2/4](3E, E, E, (3E, E, E, ||  
[M:3/4](3E, E, E,E,2E3/ G/ | 
G E E> E F E/ E/ | 
(3B, B, B,B,2B,3/ E/ ||  
E B, A,3/ A,/ | 
A,> G, (A,/ G,3/) [I:setbarnb 15]||  
[M:3/4](3E, E, E, E, G, G, G, | 
G,2G,> A, G, E, | 
(3G, G, G,G,2B,3/ E/ ||  
[M:2/4]E B, A,3/ A,/ | 
A,> G, (A,/ G,3/) | 
(3E, E, E, (3E, E, E, | 
E,2z2 |]  



